src/assets/github.svg

<svg xmlns="http://www.w3.org/2000/svg" xmlns:xlink="http://www.w3.org/1999/xlink" width="80" zoomAndPan="magnify" viewBox="0 0 60 60" height="80" preserveAspectRatio="xMidYMid meet" version="1.0"><path fill="#ffffff" d="M 30.015625 0 C 29.03125 0 28.050781 0.0507812 27.074219 0.144531 C 26.09375 0.242188 25.125 0.386719 24.160156 0.578125 C 23.195312 0.769531 22.246094 1.007812 21.304688 1.292969 C 20.363281 1.582031 19.441406 1.910156 18.53125 2.289062 C 17.625 2.664062 16.738281 3.085938 15.871094 3.546875 C 15.003906 4.011719 14.164062 4.515625 13.347656 5.0625 C 12.53125 5.609375 11.742188 6.191406 10.984375 6.816406 C 10.222656 7.441406 9.496094 8.101562 8.800781 8.792969 C 8.105469 9.488281 7.449219 10.21875 6.824219 10.976562 C 6.203125 11.738281 5.617188 12.523438 5.070312 13.34375 C 4.527344 14.160156 4.023438 15 3.558594 15.867188 C 3.097656 16.734375 2.675781 17.621094 2.300781 18.53125 C 1.925781 19.4375 1.59375 20.363281 1.308594 21.304688 C 1.023438 22.242188 0.785156 23.195312 0.59375 24.160156 C 0.402344 25.125 0.261719 26.09375 0.164062 27.070312 C 0.0664062 28.050781 0.0195312 29.03125 0.0195312 30.011719 C 0.0195312 30.996094 0.0703125 31.976562 0.167969 32.953125 C 0.261719 33.929688 0.40625 34.902344 0.597656 35.867188 C 0.789062 36.828125 1.03125 37.78125 1.316406 38.722656 C 1.601562 39.660156 1.933594 40.585938 2.308594 41.492188 C 2.683594 42.402344 3.105469 43.289062 3.566406 44.15625 C 4.03125 45.019531 4.535156 45.863281 5.082031 46.679688 C 5.628906 47.496094 6.214844 48.285156 6.835938 49.042969 C 7.460938 49.804688 8.121094 50.53125 8.816406 51.226562 C 9.507812 51.917969 10.238281 52.578125 10.996094 53.203125 C 11.757812 53.824219 12.546875 54.410156 13.363281 54.957031 C 14.179688 55.5 15.019531 56.003906 15.886719 56.46875 C 16.753906 56.929688 17.640625 57.351562 18.550781 57.726562 C 19.457031 58.101562 20.382812 58.433594 21.324219 58.71875 C 22.261719 59.003906 23.214844 59.242188 24.179688 59.433594 C 25.144531 59.625 26.113281 59.765625 27.089844 59.863281 C 28.070312 59.960938 29.050781 60.007812 30.03125 60.007812 C 31.015625 60.007812 31.996094 59.957031 32.972656 59.863281 C 33.949219 59.765625 34.921875 59.621094 35.886719 59.429688 C 36.847656 59.238281 37.800781 59 38.742188 58.710938 C 39.679688 58.425781 40.605469 58.097656 41.511719 57.71875 C 42.421875 57.34375 43.308594 56.925781 44.175781 56.460938 C 45.039062 55.996094 45.882812 55.492188 46.699219 54.945312 C 47.515625 54.398438 48.304688 53.816406 49.0625 53.191406 C 49.824219 52.566406 50.550781 51.910156 51.246094 51.214844 C 51.941406 50.519531 52.597656 49.792969 53.222656 49.03125 C 53.84375 48.273438 54.429688 47.484375 54.976562 46.667969 C 55.519531 45.847656 56.023438 45.007812 56.488281 44.140625 C 56.953125 43.273438 57.371094 42.386719 57.746094 41.480469 C 58.121094 40.570312 58.453125 39.648438 58.738281 38.707031 C 59.023438 37.765625 59.261719 36.8125 59.453125 35.851562 C 59.644531 34.886719 59.789062 33.914062 59.882812 32.9375 C 59.980469 31.960938 60.027344 30.980469 60.027344 29.996094 C 60.027344 29.015625 59.976562 28.035156 59.878906 27.058594 C 59.78125 26.078125 59.632812 25.109375 59.441406 24.148438 C 59.246094 23.183594 59.007812 22.230469 58.722656 21.292969 C 58.433594 20.351562 58.101562 19.429688 57.726562 18.523438 C 57.347656 17.617188 56.929688 16.730469 56.464844 15.863281 C 56 14.996094 55.496094 14.15625 54.949219 13.339844 C 54.402344 12.523438 53.820312 11.738281 53.195312 10.976562 C 52.570312 10.21875 51.914062 9.492188 51.21875 8.796875 C 50.523438 8.101562 49.796875 7.445312 49.035156 6.820312 C 48.277344 6.199219 47.488281 5.613281 46.671875 5.070312 C 45.855469 4.523438 45.015625 4.019531 44.148438 3.554688 C 43.28125 3.089844 42.394531 2.671875 41.488281 2.296875 C 40.582031 1.917969 39.65625 1.585938 38.71875 1.300781 C 37.777344 1.015625 36.828125 0.777344 35.863281 0.582031 C 34.902344 0.390625 33.929688 0.246094 32.953125 0.148438 C 31.976562 0.0507812 30.996094 0 30.015625 0 Z M 38.300781 55.3125 C 36.996094 55.578125 36.519531 54.777344 36.519531 54.085938 C 36.519531 53.207031 36.554688 50.410156 36.554688 46.925781 C 36.554688 44.511719 35.734375 42.929688 34.796875 42.125 C 40.578125 41.472656 46.664062 39.273438 46.664062 29.277344 C 46.683594 27.984375 46.460938 26.734375 46 25.527344 C 45.535156 24.320312 44.863281 23.242188 43.984375 22.292969 C 44.25 21.640625 45.167969 18.980469 43.734375 15.390625 C 43.734375 15.390625 41.550781 14.679688 36.578125 18.046875 C 34.449219 17.476562 32.28125 17.1875 30.078125 17.1875 C 27.875 17.1875 25.707031 17.476562 23.578125 18.046875 C 18.605469 14.71875 16.417969 15.390625 16.417969 15.390625 C 15.003906 18.964844 15.90625 21.628906 16.171875 22.292969 C 15.296875 23.246094 14.628906 24.324219 14.171875 25.53125 C 13.710938 26.738281 13.492188 27.988281 13.511719 29.277344 C 13.511719 39.230469 19.558594 41.472656 25.339844 42.125 C 24.59375 42.773438 23.902344 43.902344 23.675781 45.609375 C 22.179688 46.277344 18.449219 47.386719 16.113281 43.464844 C 15.617188 42.675781 14.160156 40.765625 12.113281 40.785156 C 9.933594 40.824219 11.234375 42.027344 12.132812 42.511719 C 13.242188 43.144531 14.507812 45.4375 14.8125 46.183594 C 15.328125 47.660156 17.011719 50.449219 23.539062 49.246094 C 23.539062 51.429688 23.578125 53.480469 23.578125 54.078125 C 23.578125 54.769531 23.101562 55.53125 21.796875 55.304688 C 20.832031 54.980469 19.890625 54.601562 18.96875 54.167969 C 18.046875 53.734375 17.15625 53.246094 16.292969 52.707031 C 15.429688 52.167969 14.601562 51.582031 13.804688 50.945312 C 13.011719 50.308594 12.257812 49.628906 11.542969 48.902344 C 10.828125 48.175781 10.160156 47.414062 9.535156 46.609375 C 8.910156 45.804688 8.335938 44.96875 7.808594 44.097656 C 7.285156 43.222656 6.808594 42.324219 6.390625 41.398438 C 5.96875 40.472656 5.605469 39.523438 5.296875 38.550781 C 4.988281 37.582031 4.738281 36.597656 4.542969 35.597656 C 4.351562 34.597656 4.21875 33.589844 4.144531 32.574219 C 4.070312 31.5625 4.054688 30.546875 4.097656 29.527344 C 4.144531 28.511719 4.25 27.5 4.414062 26.496094 C 4.574219 25.492188 4.796875 24.5 5.078125 23.519531 C 5.359375 22.542969 5.695312 21.582031 6.089844 20.644531 C 6.480469 19.707031 6.929688 18.792969 7.429688 17.90625 C 7.929688 17.019531 8.480469 16.167969 9.082031 15.34375 C 9.679688 14.523438 10.328125 13.738281 11.019531 12.992188 C 11.714844 12.246094 12.449219 11.546875 13.222656 10.886719 C 14 10.226562 14.8125 9.613281 15.660156 9.050781 C 16.507812 8.488281 17.382812 7.976562 18.292969 7.515625 C 19.199219 7.054688 20.128906 6.648438 21.085938 6.296875 C 22.042969 5.945312 23.015625 5.652344 24.003906 5.414062 C 24.992188 5.175781 25.996094 5 27.003906 4.878906 C 28.015625 4.761719 29.03125 4.699219 30.046875 4.699219 C 31.066406 4.699219 32.082031 4.761719 33.089844 4.878906 C 34.101562 5 35.101562 5.175781 36.09375 5.414062 C 37.082031 5.652344 38.054688 5.945312 39.011719 6.296875 C 39.964844 6.648438 40.898438 7.054688 41.804688 7.515625 C 42.714844 7.976562 43.589844 8.488281 44.4375 9.050781 C 45.285156 9.613281 46.097656 10.226562 46.871094 10.886719 C 47.648438 11.546875 48.382812 12.246094 49.074219 12.992188 C 49.769531 13.738281 50.414062 14.523438 51.015625 15.34375 C 51.617188 16.167969 52.167969 17.019531 52.667969 17.90625 C 53.167969 18.792969 53.613281 19.707031 54.007812 20.644531 C 54.402344 21.582031 54.738281 22.542969 55.019531 23.519531 C 55.296875 24.5 55.519531 25.492188 55.683594 26.496094 C 55.847656 27.5 55.953125 28.511719 55.996094 29.527344 C 56.042969 30.546875 56.027344 31.5625 55.953125 32.574219 C 55.878906 33.589844 55.746094 34.597656 55.550781 35.597656 C 55.359375 36.597656 55.109375 37.582031 54.800781 38.550781 C 54.492188 39.523438 54.125 40.472656 53.707031 41.398438 C 53.285156 42.324219 52.8125 43.222656 52.289062 44.097656 C 51.761719 44.96875 51.1875 45.804688 50.5625 46.609375 C 49.9375 47.414062 49.269531 48.175781 48.554688 48.902344 C 47.839844 49.628906 47.085938 50.308594 46.289062 50.945312 C 45.496094 51.582031 44.667969 52.167969 43.804688 52.707031 C 42.941406 53.246094 42.046875 53.734375 41.128906 54.167969 C 40.207031 54.601562 39.265625 54.980469 38.300781 55.304688 Z M 38.300781 55.3125 " fill-opacity="1" fill-rule="evenodd"/></svg>

<svg xmlns="http://www.w3.org/2000/svg" width="80" height="80" version="1.0" viewBox="0 0 60 60"><path fill="#fff" fill-rule="evenodd" d="M30.016 0c-.985 0-1.965.05-2.942.145a29.906 29.906 0 0 0-5.77 1.148 30.45 30.45 0 0 0-5.433 2.254 29.958 29.958 0 0 0-4.887 3.27 30.846 30.846 0 0 0-2.183 1.976 30.756 30.756 0 0 0-1.977 2.184 30.63 30.63 0 0 0-1.754 2.367 30.993 30.993 0 0 0-1.511 2.523A30.137 30.137 0 0 0 .594 24.16a30.557 30.557 0 0 0-.43 2.91 29.657 29.657 0 0 0 .004 5.883 29.434 29.434 0 0 0 1.148 5.77 30.347 30.347 0 0 0 2.25 5.433c.465.864.97 1.707 1.516 2.524a29.976 29.976 0 0 0 8.281 8.277 30.993 30.993 0 0 0 2.524 1.512 30.137 30.137 0 0 0 8.293 2.965c.965.191 1.933.332 2.91.43.98.097 1.96.144 2.941.144.985 0 1.965-.051 2.942-.145a30.65 30.65 0 0 0 2.914-.433c.96-.192 1.914-.43 2.855-.72a29.22 29.22 0 0 0 2.77-.991 29.07 29.07 0 0 0 2.664-1.258 30.595 30.595 0 0 0 2.523-1.516 29.582 29.582 0 0 0 2.364-1.754 29.924 29.924 0 0 0 2.183-1.976 30.563 30.563 0 0 0 3.73-4.547c.544-.82 1.047-1.66 1.512-2.527.465-.868.883-1.754 1.258-2.66a30.202 30.202 0 0 0 1.707-5.629c.192-.965.336-1.938.43-2.915a29.54 29.54 0 0 0-.004-5.878 30.21 30.21 0 0 0-1.156-5.766 31.144 31.144 0 0 0-.996-2.77 29.958 29.958 0 0 0-4.531-7.547 29.923 29.923 0 0 0-6.523-5.906 29.493 29.493 0 0 0-5.184-2.773 29.246 29.246 0 0 0-2.77-.996 31.145 31.145 0 0 0-2.856-.719A30.384 30.384 0 0 0 30.016 0ZM38.3 55.313c-1.305.265-1.781-.536-1.781-1.227 0-.879.035-3.676.035-7.16 0-2.414-.82-3.996-1.758-4.801 5.781-.652 11.867-2.852 11.867-12.848a10.017 10.017 0 0 0-2.68-6.984c.266-.652 1.184-3.313-.25-6.902 0 0-2.183-.711-7.156 2.656a25.023 25.023 0 0 0-13 0c-4.973-3.328-7.16-2.656-7.16-2.656-1.414 3.574-.512 6.238-.246 6.902a9.966 9.966 0 0 0-2 3.238 9.986 9.986 0 0 0-.66 3.746c0 9.953 6.047 12.196 11.828 12.848-.746.648-1.438 1.777-1.664 3.484-1.496.668-5.227 1.778-7.563-2.144-.496-.79-1.953-2.7-4-2.68-2.18.04-.879 1.242.02 1.727 1.11.633 2.375 2.925 2.68 3.672.515 1.476 2.199 4.265 8.726 3.062 0 2.184.04 4.234.04 4.832 0 .692-.477 1.453-1.782 1.227a26.376 26.376 0 0 1-2.828-1.137 26.263 26.263 0 0 1-5.164-3.223 26.033 26.033 0 0 1-7.414-9.547 25.332 25.332 0 0 1-1.094-2.847 26.377 26.377 0 0 1-.754-2.953 26.243 26.243 0 0 1-.445-6.07c.047-1.016.152-2.028.316-3.032a25.17 25.17 0 0 1 .664-2.976c.281-.977.617-1.938 1.012-2.875a26.014 26.014 0 0 1 7.133-9.758 25.823 25.823 0 0 1 5.07-3.371c.906-.461 1.836-.868 2.793-1.22a26.08 26.08 0 0 1 8.96-1.598 26.145 26.145 0 0 1 8.965 1.598 26.035 26.035 0 0 1 5.426 2.755c.848.562 1.66 1.176 2.434 1.836a25.95 25.95 0 0 1 7.137 9.758c.394.937.73 1.898 1.012 2.875.277.98.5 1.972.664 2.976.164 1.004.27 2.016.312 3.031.047 1.02.031 2.035-.043 3.047a25.42 25.42 0 0 1-.402 3.024 25.54 25.54 0 0 1-.75 2.953 26.107 26.107 0 0 1-2.512 5.547 26.243 26.243 0 0 1-3.734 4.804 25.523 25.523 0 0 1-2.266 2.043 26.105 26.105 0 0 1-7.988 4.36Zm0 0"/></svg>
